src/pages/lectures/img/headline.svg

<svg width="369" height="87" viewBox="0 0 369 87" fill="none" xmlns="http://www.w3.org/2000/svg">
<path d="M27.1083 79.7157L5.82179 55.0186L8.59694 53.6281L29.8834 78.3252L27.1083 79.7157Z" fill="black"/>
<path d="M46.4414 44.5076L44.9705 45.0509C45.5384 47.6043 45.0233 49.5343 41.8406 51.631C41.4087 51.1082 40.3713 50.3316 39.6536 50.0509C42.0088 48.6692 42.531 47.5894 42.299 46.0377L39.2972 47.1464L38.388 44.685L43.401 42.8334L42.8577 41.3625L38.8653 42.8371L37.9783 40.4357L41.9706 38.9611L41.383 37.3701L44.5349 36.2059L45.1225 37.7969L49.1449 36.3111L50.0319 38.7125L46.0095 40.1983L46.5528 41.6692L51.3857 39.884L52.2949 42.3455L48.9629 43.5762L49.2844 44.4467C49.4951 45.0171 49.6327 45.205 50.023 45.0609L51.2237 44.6174C51.5839 44.4843 52.3233 44.1771 52.6391 43.924C52.932 44.5322 53.2503 45.3016 53.5732 45.8987C53.2573 46.1518 52.608 46.4258 52.0377 46.6364L50.2666 47.2906C48.1954 48.0556 47.4725 47.2992 46.7629 45.3781L46.4414 44.5076ZM49.5254 66.1561L45.6645 66.0471C46.5528 64.3885 47.1686 61.8073 47.2062 59.5078L50.9908 59.1333C50.9944 61.4517 50.4451 64.213 49.5254 66.1561ZM52.7762 58.6102L55.9862 57.0493C57.0085 58.6162 58.118 60.6966 58.6359 62.0063L55.2301 63.776C54.7312 62.4252 53.7195 60.2404 52.7762 58.6102ZM58.7687 56.3627L61.9422 54.6106C63.2313 55.9765 64.72 57.8828 65.4702 59.1749L62.1531 61.1847C61.463 59.8705 60.0311 57.8409 58.7687 56.3627ZM64.72 54.0962L67.7651 51.8116C69.6768 53.0159 72.1515 54.7285 73.5196 56.0312L70.2487 58.5356C69.075 57.2976 66.665 55.3905 64.72 54.0962ZM60.0037 38.3723L58.2927 39.0043C58.8236 40.7186 59.239 42.3049 59.561 43.8234C60.5822 44.0944 61.5322 44.3575 62.2989 44.586L60.0037 38.3723ZM67.4819 47.7203L67.8422 47.5872C67.9622 47.5429 68.0712 47.4685 68.1169 47.3152C68.1626 47.1619 68.1339 46.8995 67.9533 46.3181C67.8027 45.7256 67.3781 44.4838 66.8126 42.9529C67.5604 43.2225 68.5972 43.3512 69.4474 43.3442C69.9718 44.8562 70.5392 46.7616 70.6251 47.5486C70.7301 48.2944 70.6073 48.8856 70.339 49.3599C70.0708 49.8343 69.4847 50.1872 68.9144 50.3978L67.5636 50.8968C66.8732 51.1518 66.0752 51.2078 65.3764 50.886C64.7265 50.5119 64.2947 49.9892 63.4742 47.7679L62.6426 45.5166L62.3289 48.3615C61.7234 48.1076 60.9045 47.8301 60.0035 47.5148C60.1622 50.2534 59.6744 52.7192 58.4009 54.9976C57.9644 54.6471 57.2624 54.2241 56.5525 53.8723L56.5747 53.9323C52.0993 56.1312 47.4439 58.3966 44.0649 60.0541L42.7492 57.2311C44.1568 56.6088 45.9325 55.7824 47.8582 54.9005L47.1818 53.0694L42.7692 54.6993L41.849 52.2078L46.2616 50.5779L45.6628 48.957L48.8147 47.7928L49.4134 49.4137L53.4958 47.9058L54.4161 50.3973L50.3337 51.9052L50.9213 53.4961L55.569 51.3019L55.9238 52.2624C56.6666 50.4871 56.7883 48.6 56.6001 46.5204C55.5568 46.1894 54.4945 45.8995 53.5967 45.6853L54.0697 42.4404L55.9175 42.9177C55.6861 42.014 55.4546 41.1102 55.1409 40.1685L52.6194 41.0999L51.4552 37.948L54.0667 36.9834C53.6421 35.7416 53.2065 34.4698 52.6964 33.089L55.9083 31.9026C56.3773 33.2645 56.843 34.5252 57.2786 35.797L62.0514 34.0341L66.6639 46.5215C66.9078 47.1819 67.052 47.5721 67.1563 47.67C67.2607 47.7679 67.3619 47.7647 67.4819 47.7203Z" fill="black"/>
<path d="M85.5669 27.8832L87.2808 26.7134C85.5388 27.2625 83.8357 27.8345 82.0857 28.3526C82.9054 28.9671 83.6951 29.7216 84.088 30.3472L82.9308 31.241L87.4543 30.0728C87.0064 29.3622 86.2627 28.5297 85.5669 27.8832ZM88.8176 29.7207L93.5891 28.4884C93.9826 27.197 94.4811 25.4158 94.7107 24.0014C92.7608 24.7694 90.648 25.5464 88.4962 26.3004C89.3319 26.9769 90.1536 27.8554 90.5006 28.559L88.8176 29.7207ZM79.9409 35.0207L80.677 37.8712L77.1759 38.7753L75.7116 33.1054L80.8239 31.7851C80.33 31.1525 79.6262 30.475 78.9625 29.9523L80.3666 28.8626C79.1043 29.2217 77.811 29.5887 76.5796 29.9398C76.3176 29.1812 75.6647 28.0608 75.1789 27.4592C82.7298 25.3439 91.594 22.4268 96.4112 20.092L99.491 21.9076C98.3467 22.4675 97.0784 23.0595 95.7242 23.5745L98.7137 23.7608C98.2272 25.0763 97.7097 26.3997 97.2141 27.5523L102.202 26.264L103.779 32.3677L100.835 33.1279C101.872 33.6864 102.754 34.285 103.363 34.8546L101.242 37.5177C99.9673 36.2935 97.3863 34.7457 95.2212 33.7846L97.2438 31.3784C98.0924 31.7211 99.0351 32.1717 99.9467 32.6303L99.2746 30.0277L90.8781 32.1961C91.8266 32.4138 92.6673 32.7255 93.306 33.0233L92.0061 35.5403C90.8296 34.9518 88.6435 34.2935 86.8873 34.0199L87.3769 33.1003L79.9409 35.0207ZM81.2664 35.8021L84.367 36.2903C84.1414 38.2324 83.638 40.3784 82.324 42.0728L79.2403 40.754C80.3945 39.4644 81.0858 37.5343 81.2664 35.8021ZM88.0556 44.5586L88.0017 44.6056C89.6899 45.128 91.5161 45.4166 93.5122 45.5951C94.8623 44.5524 95.9716 43.4727 96.8239 42.2941L88.0556 44.5586ZM99.3651 38.6964L102.081 39.6145C101.276 41.8715 99.9717 43.8608 98.2239 45.6672C101.249 45.4808 104.545 45.0594 108.032 44.3571C107.504 45.3857 107.006 47.1669 106.836 48.3014C102.155 49.1139 97.8647 49.3955 93.9895 49.1073C90.6306 51.3298 86.6089 53.1616 82.3522 54.7236C81.8263 53.9671 80.5747 52.7039 79.7011 52.1364C83.1542 51.0463 86.3574 49.7564 89.1558 48.3066C87.8883 48.0059 86.6589 47.5964 85.5063 47.1008C84.5739 47.9695 83.5556 48.7613 82.6142 49.4672C81.8574 48.9685 80.329 48.0413 79.4494 47.7066C80.5078 47.0697 81.5421 46.3399 82.4985 45.5641C81.6328 45.0275 80.7902 44.4519 79.9854 43.7674L82.5938 41.8379C83.3046 42.4145 84.1003 42.9361 84.9419 43.3797C85.9583 42.3241 86.8576 41.1994 87.4931 40.0769C86.0258 40.0262 85.43 39.2546 84.9659 37.4576L84.4138 35.3197L87.791 34.4476L88.3431 36.5854C88.5271 37.298 88.76 37.304 89.8134 37.0319L93.0667 36.1918C93.8103 35.9997 93.9792 35.7578 93.7521 34.4945C94.5377 34.7212 95.9041 34.765 96.8116 34.6958C97.0869 37.1696 96.4184 38.0363 94.0946 38.6364L91.2442 39.3726L91.4461 39.3865C91.1943 39.9473 90.9425 40.5081 90.6208 41.0538L98.7694 38.9494L99.3651 38.6964Z" fill="black"/>
<path d="M121.866 40.2349L136.892 37.9388L136.389 34.649L121.364 36.9451L121.866 40.2349ZM135.36 27.9112L120.334 30.2073L120.832 33.4655L135.858 31.1694L135.36 27.9112ZM134.33 21.1734L119.305 23.4695L119.802 26.7277L134.828 24.4316L134.33 21.1734ZM126.946 18.6114L137.796 16.9534L141.678 42.3545L137.661 42.9684L137.424 41.4184L122.398 43.7145L122.64 45.2962L118.812 45.8811L114.926 20.4483L123.024 19.2108C123.164 17.7974 123.28 16.2259 123.245 14.9364L127.877 14.7464C127.596 16.0843 127.278 17.3953 126.946 18.6114Z" fill="black"/>
<path d="M162.534 36.3317L172.761 35.8143C175.957 35.6527 176.364 34.8311 176.547 30.2079C177.599 30.7314 179.358 31.3153 180.487 31.4505C180.092 37.5902 178.77 39.3232 173.049 39.6126L162.695 40.1365C156.718 40.4388 154.711 39.3869 154.479 34.8168L153.897 23.3115L172.114 22.3899L171.794 16.062L153.194 17.003L152.996 13.104L175.656 11.9576L176.454 27.7455L172.395 27.9508L172.303 26.1291L158.049 26.8502L158.439 34.5524C158.525 36.2462 159.115 36.5047 162.534 36.3317Z" fill="black"/>
<path d="M204.825 26.0588L204.768 27.1773L208.796 27.3491C208.359 27.1347 207.923 26.8884 207.515 26.7075L208.18 26.2285L204.825 26.0588ZM195.579 23.252L201.235 23.5382L201.297 22.3238L195.64 22.0376L195.579 23.252ZM195.81 18.6819L195.75 19.8644L201.407 20.1505L201.467 18.968L195.81 18.6819ZM211.118 19.4563L205.174 19.1556L205.114 20.3381L211.058 20.6388L211.118 19.4563ZM204.943 23.7257L210.887 24.0265L210.948 22.812L205.004 22.5113L204.943 23.7257ZM217.334 31.4977L217.182 34.5019L210.055 34.1414L209.898 37.2414C209.809 38.9991 209.444 39.8778 208.108 40.3229C206.805 40.7376 205.014 40.679 202.585 40.5561C202.477 39.5254 202.066 38.1588 201.667 37.1774C203.198 37.3189 205.019 37.4111 205.531 37.437C206.044 37.4309 206.208 37.3431 206.229 36.9276L206.38 33.9554L197.367 33.4995C198.661 34.5262 199.947 35.7126 200.638 36.6127L197.703 38.8993C196.839 37.606 194.79 35.676 193.124 34.4063L194.523 33.3556L188.131 33.0322L188.283 30.0281L206.532 30.9513L206.591 29.7688C200.289 29.5781 194.244 29.3684 189.768 29.174L189.809 26.4526C192.812 26.6366 196.745 26.8035 201.059 27.0217L201.117 25.8712L191.913 25.4056L192.379 16.2013L201.583 16.667L201.641 15.5165L189.912 14.9231L190.058 12.0468L201.787 12.6401L201.889 10.6267L205.596 10.8143L205.494 12.8277L217.159 13.4178L217.014 16.2941L205.348 15.704L205.29 16.8545L214.942 17.3428L214.476 26.547L212.335 26.4387C213.891 27.3505 215.344 28.3853 216.328 29.204L213.897 31.0355C213.529 30.6965 213.101 30.2904 212.608 29.9129L210.272 29.8588L210.207 31.1372L217.334 31.4977Z" fill="black"/>
<path d="M251.114 25.7889L251.336 24.3337L245.579 23.454L245.356 24.9091L251.114 25.7889ZM250.519 29.6797L250.741 28.2246L244.984 27.3448L244.762 28.7999L250.519 29.6797ZM249.92 33.6022L250.152 32.0838L244.394 31.204L244.162 32.7224L249.92 33.6022ZM242.644 20.4158L246.693 21.0345C246.965 20.5258 247.215 19.9489 247.492 19.4085L241.924 18.5578L242.326 15.9323L256.813 18.1462L256.412 20.7717L250.876 19.9258L249.856 21.5179L255.234 22.3397L253.039 36.701L240.449 34.7771L242.644 20.4158ZM247.228 37.2372L250.029 36.2734C251.537 37.6367 253.242 39.613 254.039 40.9649L251.108 42.1356C250.316 40.7521 248.64 38.5861 247.228 37.2372ZM242.978 35.3901L245.896 36.8396C244.265 38.4031 241.776 39.8678 239.655 40.612C239.209 39.9288 238.171 38.6696 237.584 38.062C239.581 37.4931 241.668 36.5495 242.978 35.3901ZM236.986 19.098L237.213 17.6113L232.69 16.92L232.463 18.4068L236.986 19.098ZM236.387 23.0205L236.624 21.4705L232.1 20.7792L231.863 22.3292L236.387 23.0205ZM241.075 15.644L239.48 26.0828L228.123 24.3475L229.719 13.9086L241.075 15.644ZM234.212 35.3454L233.642 39.0781C235.453 39.9375 237.742 40.4169 240.558 40.8471C242.709 41.1758 251.344 42.4955 253.958 42.7653C253.34 43.4155 252.612 44.7933 252.282 45.6816L240.103 43.8206C234.156 42.9118 230.326 41.7114 228.322 37.8767C227.589 39.707 226.637 41.2772 225.363 42.4098C225.01 41.5465 224.244 40.1994 223.572 39.514C225.677 37.602 226.564 33.9177 227.239 30.1363L230.244 30.5955C230.033 31.7611 229.796 32.8902 229.527 34.0145C229.815 35.0944 230.228 35.999 230.759 36.76L231.861 29.5477L226.009 28.6534L226.424 25.933L240.596 28.0986L240.18 30.819L235.024 30.0311L234.628 32.625L239.183 33.3211L238.767 36.0415L234.212 35.3454Z" fill="black"/>
<path d="M276.091 26.6432L275.338 29.5557L264.773 26.8271L265.525 23.9147L270.73 25.259C270.469 23.9685 269.869 22.1943 269.337 20.8009L272.487 19.9948C273.189 21.4982 273.895 23.4984 274.196 24.7658L271.784 25.531L276.091 26.6432ZM273.956 30.6859L273.236 33.4744L264.87 31.314L265.59 28.5254L273.956 30.6859ZM263.798 35.4657L264.518 32.6772L272.884 34.8377L272.164 37.6262L263.798 35.4657ZM268.448 41.3927L265.318 40.5845L264.422 44.0547L267.552 44.8628L268.448 41.3927ZM271.996 39.1694L269.572 48.5574L263.654 47.0291L263.318 48.3304L260.591 47.6262L263.352 36.9369L271.996 39.1694ZM282.662 31.9098L282.31 33.2731L285.595 34.1213L285.947 32.758L282.662 31.9098ZM283.607 28.2538L283.295 29.4621L286.579 30.3103L286.891 29.102L283.607 28.2538ZM286.503 41.098L284.024 40.4579L283.656 41.8831L286.135 42.5233L286.503 41.098ZM282.672 45.6941L285.151 46.3342L285.551 44.7851L283.072 44.1449L282.672 45.6941ZM277.34 42.6646L276.94 44.2138L279.295 44.8219L279.695 43.2728L277.34 42.6646ZM280.647 39.5857L278.292 38.9776L277.924 40.4028L280.279 41.011L280.647 39.5857ZM292.482 38.6763L284.984 36.7399L284.688 37.8863L290.699 39.4386L288.683 47.2464L290.17 47.6305L289.506 50.2021L288.019 49.818L287.595 51.4602C287.195 53.0093 286.685 53.7039 285.472 53.9196C284.26 54.1353 282.734 53.7742 280.658 53.2381C280.727 52.3305 280.621 50.9482 280.395 50.0306C281.627 50.3816 283.021 50.7417 283.393 50.8377C283.796 50.9417 283.982 50.8578 284.07 50.517L284.487 48.9059L276.276 46.7854L274.98 51.8048L271.572 50.9246L272.868 45.9053L271.226 45.4812L271.89 42.9095L273.532 43.3336L275.548 35.5258L281.311 37.0141L281.607 35.8677L274.264 33.9713L274.936 31.3687L278.964 32.4089L279.316 31.0457L276.559 30.3335L277.191 27.8858L279.948 28.598L280.26 27.3896L276.759 26.4854L277.431 23.8828L280.933 24.787L281.493 22.6182L284.839 23.4823L284.279 25.6512L287.563 26.4993L288.123 24.3305L291.562 25.2187L291.002 27.3875L294.472 28.2837L293.8 30.8863L290.33 29.9901L290.018 31.1985L292.992 31.9666L292.36 34.4143L289.386 33.6462L289.034 35.0095L293.155 36.0737L292.482 38.6763Z" fill="black"/>
<path d="M315.182 57.1589L314.084 60.1306L323.63 63.6565L322.499 66.7183L299.985 58.4026L301.116 55.3408L310.632 58.8555L311.73 55.8838L304.105 53.0675L305.247 49.9757L312.872 52.792L314.213 49.1598L311.644 50.6669C311.381 49.7169 310.808 48.3115 310.184 46.955C308.975 48.0097 307.695 48.7988 306.322 49.2812C306.001 48.5824 305.121 47.2684 304.529 46.4698C302.685 50.6326 300.16 55.1582 297.076 57.8739C296.668 57.0407 295.495 55.4135 294.788 54.7428C298.703 51.3452 301.201 45.138 302.831 40.7254L305.835 32.5906L317.632 36.948C317.568 36.1056 317.463 35.2822 317.295 34.5377L321.116 34.721C321.421 35.9255 321.641 37.269 321.745 38.467L331.38 42.0261L330.161 45.3281L308.128 37.1898L306.332 42.0526C305.855 43.3434 305.293 44.7732 304.637 46.2708C307.49 45.3803 309.662 43.01 311.31 39.9344L314.4 41.4509C313.776 42.5851 313.126 43.6071 312.419 44.5057C313.194 45.9176 313.962 47.5318 314.402 48.6495L317.007 41.5953L320.459 42.8704L317.743 50.2248C320.135 49.1979 322.084 47.1546 323.587 44.4692L326.625 46.0347C325.938 47.2479 325.153 48.3566 324.334 49.282C325.41 51.0782 326.562 53.0389 327.138 54.3431L324.273 55.9116C323.852 54.8351 322.986 53.1165 322.116 51.499C320.964 52.4036 319.716 53.1027 318.426 53.5473C318.229 53.0651 317.76 52.2097 317.277 51.4855L316.324 54.067L324.218 56.9831L323.076 60.0749L315.182 57.1589Z" fill="black"/>
<path d="M337.972 78.0633L359.258 53.3663L362.033 54.7567L340.775 79.4681L337.972 78.0633Z" fill="black"/>
</svg>

<svg width="369" height="87" fill="none" xmlns="http://www.w3.org/2000/svg"><path d="M27.108 79.716 5.822 55.019l2.775-1.39 21.286 24.696-2.775 1.39Zm19.333-35.208-1.47.543c.567 2.553.052 4.483-3.13 6.58-.432-.523-1.47-1.3-2.187-1.58 2.355-1.382 2.877-2.462 2.645-4.013l-3.002 1.108-.909-2.461 5.013-1.852-.543-1.47-3.993 1.474-.887-2.401 3.993-1.475-.588-1.59 3.152-1.165.588 1.59 4.022-1.485.887 2.401-4.022 1.486.543 1.471 4.833-1.785.909 2.462-3.332 1.23.321.87c.211.571.349.759.739.615l1.2-.444c.36-.133 1.1-.44 1.416-.693.293.608.611 1.378.934 1.975-.316.253-.965.527-1.535.737l-1.771.655c-2.072.765-2.795.008-3.504-1.913l-.322-.87Zm3.084 21.648-3.86-.109c.888-1.659 1.504-4.24 1.541-6.54l3.785-.374c.003 2.319-.546 5.08-1.466 7.023Zm3.251-7.546 3.21-1.56c1.023 1.566 2.132 3.647 2.65 4.956l-3.406 1.77c-.499-1.35-1.51-3.536-2.454-5.166Zm5.993-2.247 3.173-1.752c1.29 1.366 2.778 3.272 3.528 4.564l-3.317 2.01c-.69-1.315-2.122-3.344-3.384-4.822Zm5.951-2.267 3.045-2.284c1.912 1.204 4.386 2.916 5.755 4.22l-3.271 2.504c-1.174-1.238-3.584-3.145-5.529-4.44Zm-4.716-15.724-1.711.632c.53 1.715.946 3.3 1.268 4.82 1.021.27 1.971.534 2.738.762l-2.295-6.214Zm7.478 9.348.36-.133c.12-.044.23-.119.275-.272.046-.153.017-.415-.164-.997-.15-.592-.575-1.834-1.14-3.365.747.27 1.784.398 2.634.391.525 1.512 1.092 3.418 1.178 4.205.105.745-.018 1.337-.286 1.81-.268.475-.854.828-1.425 1.039l-1.35.499c-.69.255-1.489.31-2.188-.011-.65-.374-1.081-.897-1.902-3.118l-.831-2.251-.314 2.844c-.606-.253-1.425-.53-2.325-.846.158 2.738-.33 5.204-1.603 7.483-.437-.35-1.139-.774-1.849-1.126l.023.06c-4.476 2.2-9.131 4.465-12.51 6.122l-1.316-2.823c1.408-.622 3.183-1.449 5.11-2.33l-.677-1.832-4.413 1.63-.92-2.491 4.413-1.63-.6-1.621 3.153-1.164.598 1.62 4.083-1.507.92 2.491-4.082 1.508.587 1.591 4.648-2.194.355.96c.743-1.775.864-3.662.676-5.742a43.979 43.979 0 0 0-3.003-.835l.473-3.245 1.847.478c-.23-.904-.462-1.808-.776-2.75l-2.522.932-1.164-3.152 2.612-.965c-.425-1.241-.86-2.513-1.37-3.894l3.211-1.186c.47 1.361.935 2.622 1.37 3.894l4.773-1.763 4.613 12.488c.244.66.388 1.05.492 1.148.105.098.206.095.326.05Zm18.085-19.837 1.714-1.17c-1.742.55-3.445 1.121-5.195 1.64.82.614 1.61 1.369 2.002 1.994l-1.157.894 4.523-1.168c-.448-.71-1.191-1.543-1.887-2.19Zm3.25 1.838 4.772-1.233c.394-1.291.892-3.072 1.122-4.487a175.88 175.88 0 0 1-6.215 2.3c.836.676 1.658 1.554 2.005 2.258l-1.683 1.162Zm-8.876 5.3.736 2.85-3.501.904-1.464-5.67 5.112-1.32c-.494-.633-1.198-1.31-1.861-1.833l1.404-1.09-3.787 1.078c-.262-.759-.915-1.88-1.401-2.48 7.55-2.116 16.415-5.033 21.232-7.368l3.08 1.816c-1.144.56-2.413 1.151-3.767 1.666l2.99.187a80.996 80.996 0 0 1-1.5 3.791l4.988-1.288 1.577 6.104-2.944.76c1.037.558 1.919 1.157 2.528 1.727l-2.121 2.663c-1.275-1.224-3.856-2.772-6.02-3.733l2.022-2.407c.848.343 1.791.794 2.703 1.252l-.672-2.602-8.397 2.168c.949.218 1.79.53 2.428.827l-1.3 2.517c-1.176-.588-3.362-1.246-5.119-1.52l.49-.92-7.436 1.92Zm1.325.781 3.101.488c-.226 1.942-.729 4.088-2.043 5.783l-3.084-1.319c1.154-1.29 1.846-3.22 2.026-4.952Zm6.79 8.757-.054.047c1.688.522 3.514.81 5.51.99 1.35-1.044 2.46-2.123 3.312-3.302l-8.768 2.265Zm11.31-5.863 2.715.919c-.805 2.256-2.11 4.246-3.857 6.052a72.466 72.466 0 0 0 9.808-1.31c-.528 1.029-1.026 2.81-1.196 3.944-4.681.813-8.971 1.094-12.846.806-3.36 2.223-7.381 4.055-11.638 5.617-.526-.757-1.777-2.02-2.65-2.588 3.452-1.09 6.655-2.38 9.454-3.83a22.31 22.31 0 0 1-3.65-1.205c-.932.868-1.95 1.66-2.892 2.366-.757-.498-2.285-1.426-3.165-1.76a26.9 26.9 0 0 0 3.05-2.143c-.866-.536-1.709-1.112-2.514-1.797l2.609-1.93c.71.577 1.506 1.1 2.348 1.543 1.016-1.056 1.916-2.18 2.551-3.303-1.467-.05-2.063-.822-2.527-2.62l-.552-2.137 3.377-.872.552 2.137c.184.713.417.719 1.47.447l3.254-.84c.743-.192.912-.434.685-1.697.786.226 2.152.27 3.06.2.275 2.475-.394 3.341-2.717 3.941l-2.85.737.201.014c-.252.56-.504 1.121-.825 1.667l8.148-2.105.596-.253Zm22.5 1.539 15.026-2.296-.503-3.29-15.025 2.296.502 3.29ZM135.36 27.91l-15.026 2.296.498 3.258 15.026-2.296-.498-3.258Zm-1.03-6.738-15.025 2.297.497 3.258 15.026-2.296-.498-3.259Zm-7.384-2.562 10.85-1.658 3.882 25.402-4.017.613-.237-1.55-15.026 2.297.242 1.581-3.828.585-3.886-25.433 8.098-1.237c.14-1.414.256-2.985.221-4.275l4.632-.19a67.44 67.44 0 0 1-.931 3.865Zm35.588 17.722 10.227-.518c3.196-.161 3.603-.983 3.786-5.606 1.052.523 2.811 1.107 3.94 1.243-.395 6.14-1.717 7.872-7.438 8.162l-10.354.523c-5.977.303-7.984-.75-8.216-5.32l-.582-11.505 18.217-.921-.32-6.328-18.6.941-.198-3.899 22.66-1.146.798 15.787-4.059.206-.092-1.822-14.254.721.39 7.702c.086 1.694.676 1.953 4.095 1.78Zm42.291-10.273-.057 1.118 4.028.172c-.437-.214-.873-.46-1.281-.642l.665-.479-3.355-.17Zm-9.246-2.807 5.656.286.062-1.214-5.657-.286-.061 1.214Zm.231-4.57-.06 1.182 5.657.287.06-1.183-5.657-.286Zm15.308.774-5.944-.3-.06 1.182 5.944.3.06-1.182Zm-6.175 4.27 5.944.3.061-1.214-5.944-.3-.061 1.214Zm12.391 7.772-.152 3.004-7.127-.36-.157 3.1c-.089 1.757-.454 2.636-1.79 3.08-1.303.416-3.094.357-5.523.234-.108-1.03-.519-2.397-.918-3.379 1.531.142 3.352.234 3.864.26.513-.006.677-.094.698-.51l.151-2.972-9.013-.456c1.294 1.027 2.58 2.214 3.271 3.114l-2.935 2.286c-.864-1.293-2.913-3.223-4.579-4.493l1.399-1.05-6.392-.324.152-3.004 18.249.923.059-1.182c-6.302-.19-12.347-.4-16.823-.595l.041-2.721c3.003.184 6.936.35 11.25.569l.058-1.15-9.204-.466.466-9.205 9.204.466.058-1.15-11.729-.594.146-2.876 11.729.593.102-2.013 3.707.187-.102 2.014 11.665.59-.145 2.876-11.666-.59-.058 1.15 9.652.489-.466 9.204-2.141-.108c1.556.912 3.009 1.946 3.993 2.765l-2.431 1.831c-.368-.338-.796-.745-1.289-1.122l-2.336-.054-.065 1.278 7.127.36Zm33.78-5.709.222-1.455-5.757-.88-.223 1.455 5.758.88Zm-.595 3.89.222-1.454-5.757-.88-.222 1.455 5.757.88Zm-.599 3.923.232-1.518-5.758-.88-.232 1.518 5.758.88Zm-7.276-13.186 4.049.619c.272-.51.522-1.086.799-1.627l-5.568-.85.402-2.626 14.487 2.214-.401 2.626-5.536-.846-1.02 1.592 5.378.822-2.195 14.361-12.59-1.924 2.195-14.361Zm4.584 16.821 2.801-.964c1.508 1.364 3.213 3.34 4.01 4.692l-2.931 1.17c-.792-1.383-2.468-3.549-3.88-4.898Zm-4.25-1.847 2.918 1.45c-1.631 1.563-4.12 3.028-6.241 3.772-.446-.683-1.484-1.942-2.071-2.55 1.997-.569 4.084-1.512 5.394-2.672Zm-5.992-16.292.227-1.487-4.523-.691-.227 1.487 4.523.691Zm-.599 3.922.237-1.55-4.524-.69-.237 1.55 4.524.69Zm4.688-7.376-1.595 10.439-11.357-1.735 1.596-10.44 11.356 1.736Zm-6.863 19.701-.57 3.733c1.811.86 4.1 1.339 6.916 1.77 2.151.328 10.786 1.648 13.4 1.917-.618.65-1.346 2.028-1.676 2.917l-12.179-1.861c-5.947-.91-9.777-2.11-11.781-5.944-.733 1.83-1.685 3.4-2.959 4.533-.353-.863-1.119-2.21-1.791-2.896 2.105-1.912 2.992-5.596 3.667-9.378l3.005.46a62.36 62.36 0 0 1-.717 3.418c.288 1.08.701 1.985 1.232 2.746l1.102-7.212-5.852-.895.415-2.72 14.172 2.166-.416 2.72-5.156-.788-.396 2.594 4.555.696-.416 2.72-4.555-.696Zm41.879-8.702-.753 2.913-10.565-2.729.752-2.912 5.205 1.344c-.261-1.29-.861-3.065-1.393-4.458l3.15-.806c.702 1.503 1.408 3.503 1.709 4.77l-2.412.766 4.307 1.112Zm-2.135 4.043-.72 2.788-8.366-2.16.72-2.789 8.366 2.16Zm-10.158 4.78.72-2.789 8.366 2.16-.72 2.79-8.366-2.161Zm4.65 5.927-3.13-.809-.896 3.47 3.13.809.896-3.47Zm3.548-2.224-2.424 9.388-5.918-1.528-.336 1.301-2.727-.704 2.761-10.69 8.644 2.233Zm10.666-7.26-.352 1.364 3.285.848.352-1.363-3.285-.848Zm.945-3.655-.312 1.208 3.284.848.312-1.208-3.284-.848Zm2.896 12.844-2.479-.64-.368 1.425 2.479.64.368-1.425Zm-3.831 4.596 2.479.64.4-1.549-2.479-.64-.4 1.55Zm-5.332-3.03-.4 1.55 2.355.608.4-1.55-2.355-.607Zm3.307-3.078-2.355-.608-.368 1.425 2.355.608.368-1.425Zm11.835-.91-7.498-1.936-.296 1.146 6.011 1.553-2.016 7.807 1.487.384-.664 2.572-1.487-.384-.424 1.642c-.4 1.55-.91 2.244-2.123 2.46-1.212.215-2.738-.146-4.814-.682.069-.907-.037-2.29-.263-3.207 1.232.35 2.626.71 2.998.807.403.104.589.02.677-.321l.417-1.611-8.211-2.12-1.296 5.019-3.408-.88 1.296-5.02-1.642-.424.664-2.572 1.642.425 2.016-7.808 5.763 1.488.296-1.146-7.343-1.897.672-2.602 4.028 1.04.352-1.363-2.757-.712.632-2.448 2.757.712.312-1.208-3.501-.905.672-2.602 3.502.904.56-2.169 3.346.864-.56 2.17 3.284.847.56-2.168 3.439.888-.56 2.168 3.47.897-.672 2.602-3.47-.896-.312 1.209 2.974.768-.632 2.447-2.974-.768-.352 1.364 4.121 1.064-.673 2.602Zm22.7 18.483-1.098 2.972 9.546 3.526-1.131 3.061-22.514-8.315 1.131-3.062 9.516 3.514 1.098-2.971-7.625-2.816 1.142-3.092 7.625 2.816 1.341-3.632-2.569 1.507c-.263-.95-.836-2.355-1.46-3.712-1.209 1.055-2.489 1.844-3.862 2.326-.321-.699-1.201-2.013-1.793-2.811-1.844 4.163-4.369 8.688-7.453 11.404-.408-.833-1.581-2.46-2.288-3.131 3.915-3.398 6.413-9.605 8.043-14.018l3.004-8.134 11.797 4.357a16.95 16.95 0 0 0-.337-2.41l3.821.183a24.43 24.43 0 0 1 .629 3.746l9.635 3.56-1.219 3.301-22.033-8.138-1.796 4.863a77.29 77.29 0 0 1-1.695 4.218c2.853-.89 5.025-3.261 6.673-6.337l3.09 1.517c-.624 1.134-1.274 2.156-1.981 3.055.775 1.412 1.543 3.026 1.983 4.144l2.605-7.055 3.452 1.275-2.716 7.355c2.392-1.027 4.341-3.07 5.844-5.756l3.038 1.566a19.264 19.264 0 0 1-2.291 3.247c1.076 1.796 2.228 3.757 2.804 5.061l-2.865 1.569c-.421-1.077-1.287-2.795-2.157-4.413-1.152.905-2.4 1.604-3.69 2.048-.197-.482-.666-1.337-1.149-2.061l-.953 2.581 7.894 2.916-1.142 3.092-7.894-2.916Zm22.79 20.904 21.286-24.697 2.775 1.39-21.258 24.712-2.803-1.405Z" fill="#000"/></svg>
